!!!COM:	Rachmaninoff, Sergei
!!!CDT:	1873/04/01–1943/03/28
!!!OTL@RU:	Dnes spaseniye
!!!OTL@EN:	Today Salvation is Come
!!!OPS:	Op. 37
!!!ONM:	No. 13
!!!CNT:	Znamenny Chant
**kern	**kern	**kern	**kern	**kern	**kern
*part6	*part5	*part4	*part3	*part2	*part1
*staff6	*staff5	*staff4	*staff3	*staff2	*staff1
*I"Bass	*I"Tenor 2	*I"Tenor 1	*I"Alto 2	*I"Alto 1	*I"Soprano
*I'B	*I'T 2	*I'T 1	*I'A 2	*I'A 1	*I'S
*clefF4	*clefGv2	*clefGv2	*clefG2	*clefG2	*clefG2
*k[]	*k[]	*k[]	*k[]	*k[]	*k[]
*C:	*C:	*C:	*C:	*C:	*C:
*M4/4	*M4/4	*M4/4	*M4/4	*M4/4	*M4/4
=1	=1	=1	=1	=1	=1
2A	2e	2e	1a	1a	4a
.	.	.	.	.	8bL
.	.	.	.	.	8ccJ
2F	2d	2d	.	.	2dd
=2	=2	=2	=2	=2	=2
4A	4e	4e	4a	4a	4cc
2F	2d	2d	2a	2a	2dd
8A	8e	8e	8e	8e	8cc
8A	8d	8d	8f	8f	8dd
=3	=3	=3	=3	=3	=3
4E	4c	4c	4g	4g	4ee
8FL	4d	4d	8aL	8aL	4dd
8GJ	.	.	8bJ	8bJ	.
[2A	4e	4e	2a	2a	2cc
.	8eL	8eL	.	.	.
.	8fJ	8fJ	.	.	.
=4	=4	=4	=4	=4	=4
2.A]	2.g	2.g	4r	4r	8eeL
.	.	.	.	.	8dd
.	.	.	8gL	8gL	8ee
.	.	.	8aJ	8aJ	8ffJ
.	.	.	8b-XL	8b-XL	4gg
.	.	.	8aJ	8aJ	.
4A	8fL	4g	4b-	4b-	8ffL [8gg
.	8eJ	.	.	.	8eeJ 8gg]
=5	=5	=5	=5	=5	=5
!!pagebreak:original
2.A	4f	4f	4a	4cc	4ff 4aa
.	8eL	8eL	4a	4cc	8eeL 8gg
.	8dJ	8fJ	.	.	8ddJ 8ff
.	4e	4e	4a	4cc	[8eeL
.	.	.	.	.	8eeJ] 8gg
4A	8dL	8dL	4a	4cc	8ddL 8ff
.	8cJ	8eJ	.	.	8ccJ 8ee
=6	=6	=6	=6	=6	=6
4A	2d	4f	2a	8ccL	2dd
.	.	.	.	8b	.
8FL	.	4d	.	8a	.
8GJ	.	.	.	8bJ	.
4A	2e	2e	2a	2a	2cc
8GL	.	.	.	.	.
8AJ	.	.	.	.	.
=7	=7	=7	=7	=7	=7
4B-X	4d	4d	4g	4g	8dd
.	.	.	.	.	8ee
4A	4d	4d	4a	4a	4ff
4.G	4d	4d	4b-X	4b-X	4ff
.	4c#X	4c#X	8gL	8gL	8eeL
8F	.	.	8aJ	8aJ	8ffJ
=8	=8	=8	=8	=8	=8
!!pagebreak:original
4E	4c#X	4c#X	4b-X	4b-X	4gg
4F	8dL	8dL	4a	4a	4ff
.	8cnJ	8cnJ	.	.	.
[2D	4.B-X	4.B-X	4.g	4.g	8eeL
.	.	.	.	.	8ddJ
.	.	.	.	.	[4ee
.	8A	8A	8f	8f	.
=9	=9	=9	=9	=9	=9
4D]	8B-XL	8B-XL	8gL	8gL	4ee]
.	8GJ	8GJ	8eJ	8eJ	.
4GG	4A	4A	4f	4f	4dd
2C	2G	2G	2e	2e	2cc
=10	=10	=10	=10	=10	=10
*M6/4	*M6/4	*M6/4	*M6/4	*M6/4	*M6/4
2r	4F	4A	2r	4d	4a
.	8FL	4A	.	8dL	8bL
.	8GJ	.	.	8eJ	8ccJ
8AAL	4.A	2d	8AL	4.f	2dd
16BBL	.	.	16BL	.	.
16CJJ	.	.	16cJJ	.	.
4D	.	.	4d	.	.
.	8B-X	.	.	8g	.
8CL	2G	2c	8cL	8eL	2cc
8DJ	.	.	8dJ	8fJ	.
8EL	.	.	8eL	4g	.
16DL	.	.	16dL	.	.
16EJJ	.	.	16eJJ	.	.
=11	=11	=11	=11	=11	=11
!!pagebreak:original
8F	4A	4d	8f	4a	4dd
8E	.	.	8e	.	.
4D	8A	8d	4d	8f	8dd
.	8A	8e	.	8g	8ee
8DL	4A	[2f	8dL	4a	[2ff
16EL	.	.	16eL	.	.
16FJJ	.	.	16fJJ	.	.
4G	4B-X	.	4g	4b-X	.
8.FL	4c	4f]	8.fL	4cc	4ff]
16GJk	.	.	16gJk	.	.
8AL	8dL	8fL	8aL	8aL	8ddL 8ff
8BJ	8eJ	8gJ	8bJ	8bnJ	8eeJ 8gg
=12	=12	=12	=12	=12	=12
*M4/4	*M4/4	*M4/4	*M4/4	*M4/4	*M4/4
4.c	4f	4a	4.cc	4.cc	4ff 4aa
.	4e	4g	.	.	4ee 4gg
16B-XLL	.	.	16b-XLL	16b-XLL	.
16AJJ	.	.	16aJJ	16aJJ	.
4G	8dL	8fL	4g	4g	8ddL 8ff
.	8cJ	8eJ	.	.	8ccJ 8ee
8.AL	8dL	8fL	8.aL	8.aL	8ddL 8ff
.	8eJ	8gJ	.	.	8eeJ 8gg
16cJk	.	.	16ccJk	16ccJk	.
=13	=13	=13	=13	=13	=13
4.B-X	8dL	8fL	4.b-X	4.b-X	8ddL 8ff
.	8cJ	8eJ	.	.	8ccJ 8ee
.	8B-XL	8dL	.	.	8b-XL 8dd
16ALL	8cJ	8eJ	16aLL	16aLL	8ccJ 8ee
16GJJ	.	.	16gJJ	16gJJ	.
8FL	4d	4f	8fL	8fL	4dd 4ff
8GJ	.	.	8gJ	8gJ	.
4A	4c	4e	4a	4a	4cc 4ee
=14	=14	=14	=14	=14	=14
!!pagebreak:original
4D	2.A	2.d	4.f	4.f	8ddL
.	.	.	.	.	8ccJ
4E	.	.	.	.	2.dd
.	.	.	8g	8g	.
4F	.	.	8fL	8fL	.
.	.	.	8e	8e	.
4G	8cL	8cL	8d	8d	.
.	8B-XJ	8B-XJ	8eJ	8eJ	.
=15	=15	=15	=15	=15	=15
[1C	4A	[1c	8fL	8fL	[1cc
.	.	.	8e	8e	.
.	4B-X	.	8f	8f	.
.	.	.	8gJ	8gJ	.
.	4A	.	8fL	8fL	.
.	.	.	8e	8e	.
.	4G	.	8d	8d	.
.	.	.	8eJ	8eJ	.
=16	=16	=16	=16	=16	=16
1C]	4.A	1c]	4f	4f	1cc_
.	.	.	2e	2e	.
.	8B-X	.	.	.	.
.	8AL	.	.	.	.
.	8GJ	.	.	.	.
.	4F	.	4d	4d	.
=17	=17	=17	=17	=17	=17
1CC; 1C	1G;	1c;	1e;	1e;	1cc;]
==	==	==	==	==	==
*-	*-	*-	*-	*-	*-
